assets/images/diners.svg

<svg height="48" viewBox="0 0 48 48" width="48" xmlns="http://www.w3.org/2000/svg"><path d="m45 35c0 2.199219-1.800781 4-4 4h-34c-2.199219 0-4-1.800781-4-4v-22c0-2.199219 1.800781-4 4-4h34c2.199219 0 4 1.800781 4 4z" fill="#cfd8dc"/><path d="m29 16h-10c-4.398437 0-8 3.601563-8 8 0 4.398438 3.601563 8 8 8h10c4.398438 0 8-3.601562 8-8 0-4.398437-3.601562-8-8-8z" fill="#1565c0"/><path d="m19 18c-3.300781 0-6 2.699219-6 6s2.699219 6 6 6 6-2.699219 6-6-2.699219-6-6-6zm-4 6c0-1.898437 1.300781-3.398437 3-3.898437v7.699218c-1.699219-.402343-3-1.902343-3-3.800781zm5 3.898438v-7.699219c1.699219.402344 3 2 3 3.902344 0 1.796875-1.300781 3.296875-3 3.796875z" fill="#fff"/></svg>

<svg xmlns="http://www.w3.org/2000/svg" width="42" height="30" viewBox="0 0 42 30"><g transform="translate(-3 -9)"><path d="M45,35a4.013,4.013,0,0,1-4,4H7a4.013,4.013,0,0,1-4-4V13A4.013,4.013,0,0,1,7,9H41a4.013,4.013,0,0,1,4,4Z" fill="#cfd8dc"/><path d="M29,16H19a8,8,0,0,0,0,16H29a8,8,0,0,0,0-16Z" fill="#1565c0"/><path d="M19,18a6,6,0,1,0,6,6A6.017,6.017,0,0,0,19,18Zm-4,6a4.079,4.079,0,0,1,3-3.9v7.7A3.88,3.88,0,0,1,15,24Zm5,3.9V20.2a3.994,3.994,0,0,1,3,3.9A4.053,4.053,0,0,1,20,27.9Z" fill="#fff"/></g></svg>
